ix/backward-15-seconds_bold.svg

<svg viewBox="0 0 24 24" fill="none" xmlns="http://www.w3.org/2000/svg" height="1em" width="1em">
  <path d="M14.4314 16.9203H12.1414C11.7314 16.9203 11.3914 16.5803 11.3914 16.1703C11.3914 15.7603 11.7314 15.4203 12.1414 15.4203H14.4314C14.8614 15.4203 15.2114 15.0703 15.2114 14.6403C15.2114 14.2103 14.8614 13.8603 14.4314 13.8603H12.1414C11.9014 13.8603 11.6714 13.7403 11.5314 13.5503C11.3914 13.3603 11.3514 13.1003 11.4314 12.8703L12.1914 10.5803C12.2914 10.2703 12.5814 10.0703 12.9014 10.0703H15.9614C16.3714 10.0703 16.7114 10.4103 16.7114 10.8203C16.7114 11.2303 16.3714 11.5703 15.9614 11.5703H13.4414L13.1814 12.3603H14.4314C15.6914 12.3603 16.7114 13.3803 16.7114 14.6403C16.7114 15.9003 15.6814 16.9203 14.4314 16.9203Z" fill="#292D32"/>
  <path d="M9.54041 16.9208C9.13041 16.9208 8.79041 16.5808 8.79041 16.1708V12.7808L8.60041 13.0008C8.32041 13.3108 7.85041 13.3308 7.54041 13.0608C7.24041 12.7808 7.21041 12.3108 7.49041 12.0008L8.99041 10.3308C9.20041 10.1008 9.53041 10.0208 9.82041 10.1308C10.1104 10.2408 10.3004 10.5208 10.3004 10.8308V16.1808C10.2904 16.5908 9.96041 16.9208 9.54041 16.9208Z" fill="#292D32"/>
  <path d="M12.0016 3.47945C11.9216 3.47945 11.8416 3.48945 11.7616 3.48945L12.5816 2.46945C12.8416 2.14945 12.7916 1.66945 12.4616 1.41945C12.1316 1.16945 11.6716 1.20945 11.4116 1.53945L9.44156 3.99945C9.43156 4.00945 9.43156 4.01945 9.42156 4.03945C9.39156 4.07945 9.37156 4.12945 9.35156 4.16945C9.33156 4.21945 9.31156 4.25945 9.30156 4.29945C9.29156 4.34945 9.29156 4.38945 9.29156 4.43945C9.29156 4.48945 9.29156 4.53945 9.29156 4.58945C9.29156 4.60945 9.29156 4.61945 9.29156 4.63945C9.30156 4.66945 9.32156 4.68945 9.33156 4.71945C9.35156 4.76945 9.37156 4.80945 9.39156 4.85945C9.42156 4.89945 9.45156 4.93945 9.49156 4.96945C9.51156 4.99945 9.52156 5.02945 9.55156 5.04945C9.57156 5.05945 9.58156 5.06945 9.60156 5.07945C9.62156 5.09945 9.65156 5.10945 9.68156 5.11945C9.73156 5.14945 9.79156 5.16945 9.84156 5.17945C9.88156 5.19945 9.91156 5.19945 9.94156 5.19945C9.97156 5.19945 9.99156 5.20945 10.0216 5.20945C10.0516 5.20945 10.0716 5.19945 10.0916 5.18945C10.1216 5.18945 10.1516 5.19945 10.1816 5.18945C10.8216 5.03945 11.4216 4.96945 11.9916 4.96945C16.4816 4.96945 20.1316 8.61945 20.1316 13.1095C20.1316 17.5994 16.4816 21.2495 11.9916 21.2495C7.50156 21.2495 3.85156 17.5994 3.85156 13.1095C3.85156 11.3695 4.42156 9.68945 5.50156 8.24945C5.75156 7.91945 5.68156 7.44945 5.35156 7.19945C5.02156 6.94945 4.55156 7.01945 4.30156 7.34945C3.02156 9.04945 2.35156 11.0395 2.35156 13.1095C2.35156 18.4195 6.67156 22.7495 11.9916 22.7495C17.3116 22.7495 21.6316 18.4295 21.6316 13.1095C21.6316 7.78945 17.3116 3.47945 12.0016 3.47945Z" fill="#292D32"/>
</svg>

<svg viewBox="0 0 24 24" fill="none" xmlns="http://www.w3.org/2000/svg" height="1em" width="1em">
  <path d="M14.431 16.92h-2.29c-.41 0-.75-.34-.75-.75s.34-.75.75-.75h2.29a.781.781 0 0 0 0-1.56h-2.29c-.24 0-.47-.12-.61-.31a.746.746 0 0 1-.1-.68l.76-2.29c.1-.31.39-.51.71-.51h3.06c.41 0 .75.34.75.75s-.34.75-.75.75h-2.52l-.26.79h1.25a2.279 2.279 0 1 1 0 4.56Zm-4.891 0c-.41 0-.75-.34-.75-.75v-3.39L8.6 13c-.28.31-.75.33-1.06.06A.755.755 0 0 1 7.49 12l1.5-1.67c.21-.23.54-.31.83-.2.29.11.48.39.48.7v5.35c-.01.41-.34.74-.76.74Z" fill="#292D32"/>
  <path d="M12.002 3.48c-.08 0-.16.01-.24.01l.82-1.02c.26-.32.21-.8-.12-1.05a.747.747 0 0 0-1.05.12L9.442 4c-.01.01-.01.02-.02.04-.03.04-.05.09-.07.13-.02.05-.04.09-.05.13-.01.05-.01.09-.01.14v.2c.01.03.03.05.04.08.02.05.04.09.06.14.03.04.06.08.1.11.02.03.03.06.06.08.02.01.03.02.05.03.02.02.05.03.08.04.05.03.11.05.16.06.04.02.07.02.1.02s.05.01.08.01.05-.01.07-.02c.03 0 .06.01.09 0 .64-.15 1.24-.22 1.81-.22 4.49 0 8.14 3.65 8.14 8.14s-3.65 8.14-8.14 8.14-8.14-3.65-8.14-8.14c0-1.74.57-3.42 1.65-4.86a.75.75 0 0 0-1.2-.9c-1.28 1.7-1.95 3.69-1.95 5.76 0 5.31 4.32 9.64 9.64 9.64s9.64-4.32 9.64-9.64-4.32-9.63-9.63-9.63Z" fill="#292D32"/>
</svg>
